src/16/actions/mail-queue.svg

<svg xmlns="http://www.w3.org/2000/svg" viewBox="0 0 16 16">
  <defs id="defs3051">
    <style type="text/css" id="current-color-scheme">
      .ColorScheme-Text {
        color:#5d656b;
      }
      </style>
  </defs>
 <path style="fill:currentColor;fill-opacity:1;stroke:none" 
     d="M 1 2 L 1 14 L 9 14 L 9 13 L 2.65625 13 L 6.6425781 8.3496094 L 8 9.7070312 C 7.986852 9.6833613 14 3.7070312 14 3.7070312 L 14 8 L 15 8 L 15 2 L 1 2 z M 2.7070312 3 L 13.292969 3 L 8 8.2929688 L 2.7070312 3 z M 2 3.7070312 L 5.9335938 7.640625 L 2 12.230469 L 2 3.7070312 z M 12 8 C 10.338 8 9 9.338 9 11 C 9 12.662 10.338 14 12 14 C 13.662 14 15 12.662 15 11 C 15 9.338 13.662 8 12 8 z M 12 9 C 13.108 9 14 9.892 14 11 C 14 12.108 13.108 13 12 13 C 10.892 13 10 12.108 10 11 C 10 9.892 10.892 9 12 9 z M 11 10 L 11 11 L 11 12 L 13 12 L 13 11 L 12 11 L 12 10 L 11 10 z "
     class="ColorScheme-Text"
     />
</svg>

<svg xmlns="http://www.w3.org/2000/svg" viewBox="0 0 16 16"><path d="M1 2v12h8v-1H2.656l3.987-4.65L8 9.707c-.013-.024 6-6 6-6V8h1V2H1zm1.707 1h10.586L8 8.293 2.707 3zM2 3.707l3.934 3.934L2 12.23V3.706zM12 8c-1.662 0-3 1.338-3 3s1.338 3 3 3 3-1.338 3-3-1.338-3-3-3zm0 1c1.108 0 2 .892 2 2s-.892 2-2 2-2-.892-2-2 .892-2 2-2zm-1 1v2h2v-1h-1v-1h-1z" fill="currentColor" color="#5d656b"/></svg>
